X:60
T: Limerick Jig
T: Port Luimnigh
S: B.Breathnach:"Ceol Rince na hEireann" III/49
Z: B.Black
L: 1/8
M: 12/8
Q: 360
R: slide
K: G
DEF GAB e2c A2G|FAF EFE DFA d2A|
DEF GAB e2c A2G|FFF DEF G3 G3 :|
BdB B2A BdB B2A|G3 BAG A2G E2D|
BdB B2A BdB B2A|GFE A2E B3 B2B|
DEF GAB e2c A2G|FFF EFE DFA d3|
DEF GAB e2c A2G|F2F DEF G3 G3 ||
